X: 2341
M: C
L: 1/8
K: D
uA2 |:\
[1,3 DAFA DAFA | A,ECE A,ECE :|\
[2,4 fgaf bgec | d2d2d2 ::\
uA2 |\
defe dcBA |
E2E2 edcB | Acec dBA^G |\
fgaf bgec | d2d2d2 :|


